X: 11144
T: Dulaman Na Binne Bui
R: strathspey
M: 4/4
K: Dmajor
M:6/8
ABA ABc|ded A2 F|GAG GED|CDE GFG|
ABA ABc|ded A2 F|GAG EDC|D3- D2||
D/F/|A3 ABc|d3 A2 F|GAG GED|CDE GFG|
ABA A2 c|ded A2 F|GAG EDC|D3- D3||

